frontend/public/svg/interface/cross.svg

<svg width="130" height="127" viewBox="0 0 130 127" fill="none" xmlns="http://www.w3.org/2000/svg">
<g clip-path="url(#clip0)">
<path d="M62.3649 76.0626C51.1451 86.1072 40.1732 95.8365 29.311 105.687C23.0183 111.394 16.9509 117.348 10.6729 123.069C9.0008 124.632 7.07937 125.903 4.98785 126.828C3.95649 127.261 1.72933 126.828 1.22143 126.035C0.549397 124.982 0.748089 123.114 1.11261 121.74C1.37779 120.738 2.45753 119.908 3.27208 119.104C18.7627 103.852 34.2604 88.6091 49.7649 73.3765C51.5045 71.6681 53.2942 70.0117 55.293 68.1144C48.5175 60.6052 41.7314 53.3593 35.2529 45.844C24.9134 33.8442 14.7813 21.6659 4.56355 9.56215C4.19212 9.12226 3.87261 8.64079 3.49773 8.20091C1.70969 6.08722 0.449103 3.80904 2.48505 1.24507C4.00964 -0.674661 7.65428 -0.387934 10.1921 2.22366C16.5124 8.7258 22.6693 15.3855 28.7745 22.0963C39.9226 34.3429 50.9837 46.6692 62.092 58.9522C62.5675 59.399 63.0731 59.8124 63.6053 60.1895C72.1948 51.9798 80.6892 43.7969 89.2545 35.6841C99.1881 26.2803 109.157 16.9135 119.16 7.58361C122.912 4.07666 125.921 3.44455 128.224 5.49071C130.61 7.61046 130.388 11.1519 126.582 14.9489C116.293 25.2161 105.755 35.2339 95.2268 45.2629C87.2065 52.9054 79.0583 60.4164 70.5224 68.3992C77.4586 75.5733 84.0927 82.724 91.0479 89.5439C97.7284 96.0945 104.782 102.265 111.594 108.681C114.257 111.095 116.751 113.69 119.058 116.449C120.918 118.763 121.193 121.636 118.906 123.919C116.652 126.17 114.043 125.375 111.869 123.67C107.71 120.58 103.724 117.264 99.9275 113.736C88.3069 102.355 76.8913 90.7657 65.4012 79.2517C64.4925 78.3424 63.6243 77.3883 62.3649 76.0626Z" fill="black"/>
</g>
<defs>
<clipPath id="clip0">
<rect width="129" height="127" fill="white" transform="translate(0.777344)"/>
</clipPath>
</defs>
</svg>

<svg xmlns="http://www.w3.org/2000/svg" width="130" height="127" fill="none" viewBox="0 0 130 127"><g clip-path="url(#a)"><path fill="#000" d="M62.365 76.063c-11.22 10.044-22.192 19.774-33.054 29.624-6.293 5.707-12.36 11.661-18.638 17.382a20.4 20.4 0 0 1-5.685 3.759c-1.032.433-3.259 0-3.767-.793-.672-1.053-.473-2.921-.108-4.295.265-1.002 1.345-1.832 2.16-2.636a60156 60156 0 0 1 46.492-45.728c1.74-1.708 3.53-3.364 5.528-5.262-6.776-7.509-13.562-14.755-20.04-22.27-10.34-12-20.472-24.178-30.69-36.282-.37-.44-.69-.921-1.065-1.361C1.71 6.087.449 3.809 2.485 1.245c1.525-1.92 5.17-1.633 7.707.979 6.32 6.502 12.477 13.162 18.583 19.872C39.923 34.343 50.984 46.67 62.092 58.952q.715.67 1.513 1.238c8.59-8.21 17.084-16.393 25.65-24.506a5537 5537 0 0 1 29.905-28.1c3.752-3.507 6.761-4.14 9.064-2.093 2.386 2.12 2.164 5.66-1.642 9.458-10.289 10.267-20.827 20.285-31.355 30.314-8.02 7.642-16.169 15.153-24.705 23.136 6.937 7.174 13.57 14.325 20.526 21.145 6.68 6.55 13.734 12.721 20.546 19.137a78 78 0 0 1 7.464 7.768c1.86 2.314 2.135 5.187-.152 7.47-2.254 2.251-4.863 1.456-7.037-.249a142 142 0 0 1-11.942-9.934c-11.62-11.381-23.036-22.97-34.526-34.484-.908-.91-1.777-1.864-3.036-3.19"/></g><defs><clipPath id="a"><path fill="#fff" d="M.777 0h129v127h-129z"/></clipPath></defs></svg>
